X: 24
M: 3/4
L: 1/8
K: F
d2 fd cA | c2 dc AF | (ag) (fd) (cA) | G4
(FD) |\
f3 g (f/g/a) | f3 d c2 | G2 cd fc | df dc A2 |\
c2 Ac df | Ac GA F2 | (ag) (fd) (cA) | G4


